svgs/light/messages-question.svg

<svg xmlns="http://www.w3.org/2000/svg" viewBox="0 0 640 512"><!-- Font Awesome Pro 6.0.0-alpha2 by @fontawesome - https://fontawesome.com License - https://fontawesome.com/license (Commercial License) --><path d="M208 216C196.955 216 188 224.953 188 236C188 247.045 196.955 256 208 256S228 247.045 228 236C228 224.953 219.045 216 208 216ZM224.594 64H188.234C163.844 64 144 83.844 144 108.234C144 117.078 151.156 124.234 160 124.234S176 117.078 176 108.234C176 101.484 181.484 96 188.234 96H224.594C233.094 96 240 102.906 240 111.406C240 117.281 236.734 122.562 231.266 125.297L200.625 141.203C195.328 143.953 192 149.438 192 155.406V176C192 184.844 199.156 192 208 192S224 184.844 224 176V165.125L245.781 153.812C261.953 145.75 272 129.5 272 111.406C272 85.266 250.734 64 224.594 64ZM576 128H448V160H576C593.645 160 608 174.355 608 192V384C608 401.645 593.645 416 576 416H512V465.566L431.762 420.152L424.428 416H320C302.355 416 288 401.645 288 384V352H256V384C256 419.25 284.75 448 320 448H416L524.875 509.625C527.125 511.25 529.625 512 532 512C538.25 512 544 507.125 544 500V448H576C611.25 448 640 419.25 640 384V192C640 156.75 611.25 128 576 128ZM416 256V64C416 28.75 387.25 0 352 0H64C28.75 0 0 28.75 0 64V256C0 291.25 28.75 320 64 320H96V372C96 379.125 101.75 384 108 384C110.375 384 112.875 383.25 115.125 381.625L224 320H352C387.25 320 416 291.25 416 256ZM215.572 288L208.238 292.152L128 337.566V288H64C46.355 288 32 273.645 32 256V64C32 46.355 46.355 32 64 32H352C369.645 32 384 46.355 384 64V256C384 273.645 369.645 288 352 288H215.572Z"/></svg>

<svg xmlns="http://www.w3.org/2000/svg" viewBox="0 0 640 512"><!--! Font Awesome Pro 6.3.0 by @fontawesome - https://fontawesome.com License - https://fontawesome.com/license (Commercial License) Copyright 2023 Fonticons, Inc. --><path d="M208 216c-11.04 0-20 8.953-20 20C188 247 196.1 256 208 256s20-8.955 20-20C228 224.1 219 216 208 216zM224.6 64H188.2C163.8 64 144 83.84 144 108.2c0 8.844 7.156 16 16 16s16-7.156 16-16C176 101.5 181.5 96 188.2 96h36.36C233.1 96 240 102.9 240 111.4c0 5.875-3.266 11.16-8.734 13.89L200.6 141.2C195.3 143.1 192 149.4 192 155.4V176C192 184.8 199.2 192 208 192S224 184.8 224 175.9V165.1l21.78-11.31C261.1 145.8 272 129.5 272 111.4C272 85.27 250.7 64 224.6 64zM576 128H448v32h128c17.64 0 32 14.36 32 32v192c0 17.64-14.36 32-32 32h-64v49.57L424.4 416H320c-17.64 0-32-14.36-32-32v-32l-32-.0039v31.98c0 35.25 28.75 63.1 63.1 63.1L416 448l108.9 61.63C527.1 511.3 529.6 512 532 512C538.3 512 544 507.1 544 500v-52.03h32c35.25 0 64-28.75 64-63.1V191.1C640 156.7 611.3 128 576 128zM416 256V63.1C416 28.75 387.3 0 352 0H64C28.75 0 0 28.75 0 63.1v192C0 291.3 28.75 320 64 320l32 .0106V372C96 379.1 101.8 384 108 384c2.375 0 4.875-.75 7.125-2.375L224 320l128-.075C387.3 319.9 416 291.3 416 256zM215.6 288L128 337.6V288H64C46.36 288 32 273.6 32 256V64c0-17.64 14.36-32 32-32h288c17.64 0 32 14.36 32 32v192c0 17.64-14.36 32-32 32H215.6z"/></svg>
